X:12
T:Falling Off a Chair
C: Larry Cusick
M:6/8
K:G
| ~B3 dcB | cec AGE | B,DE GED | B,2D EGA | 
~B3 dcB | cec AGE | B,DE GED | B,DA, G,2 :|
B | c3 gcc | acc gcc  | faa agf | ged cAB |
c3 gcc | acc gcc | faa agf | ge^c  d2 :|
